!!!!SEGMENT: pl-kk--kk-i-382--037_flasza-tomasz--zdrowas-badz-marya.krn
!!!cenid: 18xx:1524
!!!COM: Flasza, Tomasz
!!!COM-rismID: pe50045891
!!!CDT: 1865-1940
!!!CNT: Polish
!!!OTL: Zdrowaś bądź Marya
!!!PDT:
!!!AGN: Sacred
!!!SMS-siglum: PL-Kk
!!!SMS-shelfmark: Kk.I.382
!!!SMS-shelfwork: 022 W
!!!SMS-variant:
!!!SMS-altvar:
!!!NIFC-rismSourceID: 1001139027
!!!NIFC-rismChildID: 1001139996
!!!NIFC-islandoraID: pl-kk:6162
!!!URL-pdf-islandora: https://repozytorium.nifc.pl/islandora/object/pl-kk%3A6162/datastream/PDF/view
!!!URL-scan: https://polish.musicsources.pl/pl/lokalizacje/galeria/rekopisy/5994 @EN{Scan on Polish Music Sources Website} @PL{Skany w portalu Dziedzictwo Muzyki Polskiej w otwartym dostępie}
!!!IIIF:
!!!ONB-nifc: UWAGA: obsada: T2, A/B1. Skan 0106, 0180
!!!AIN: 1 alto 1 bass 2 tenor
!!!key:
**kern	**kern	**text	**text	**kern	**text	**text	**kern
*part4	*part3	*part3	*part3	*part2	*part2	*part2	*part1
*staff4	*staff3	*staff3	*staff3	*staff2	*staff2	*staff2	*staff1
*Ibass	*Ialto	*	*	*Itenor	*	*	*Itenor
*I"Basso II	*I"Alto vel Basso I	*	*	*I"Tenore II	*	*	*I"Soprano vel Tenore I.
*I'B. II	*I'A.	*	*	*I'T. II	*	*	*I'S. vel T. I
*clefF4	*clefF4	*	*	*clefG2	*	*	*clefG2
*k[f#]	*k[f#]	*	*	*k[f#]	*	*	*k[f#]
*G:	*G:	*	*	*G:	*	*	*G:
*M4/4	*M4/4	*	*	*M4/4	*	*	*M4/4
*met(c)	*met(c)	*	*	*met(c)	*	*	*met(c)
=1	=1	=1	=1	=1	=1	=1	=1
!	!LO:TX:t=P:global:problem=caudy wszystkich nut po prawej	!	!	!LO:TX:t=P:global:problem=caudy wszystkich nut po prawej	!	!	!
1ryy	4BB/	Zdro-	Ma-	4d/	Zdro-	Ma-	1ryy
.	4BB/	-waś	-ry-	4d/	-waś	-ry-	.
.	4E\	bądź	-a	4g\	bądź	-a	.
.	4G\	Ma-	wie-	4a\	Ma-	wie-	.
=2	=2	=2	=2	=2	=2	=2	=2
1ryy	(4G\	-ry-	-leb-	2a/	-ry-	-leb-	1ryy
.	8F#\L	.	.	.	.	.	.
.	8E\J)	.	.	.	.	.	.
.	4F#\	-a	-na	4a/	-a	-na	.
.	4r	.	.	4r	.	.	.
!	!	!	!	!LO:LB:g=original	!	!	!
=3	=3	=3	=3	=3	=3	=3	=3
1ryy	4A\	nie-	u-	4ee\	nie-	u-	1ryy
.	4A\	-bies-	-każ	4dd\	-bies-	-każ	.
.	4G\	-ka	dro-	4dd\	-ka	dro-	.
.	4G\	li-	-gę	4dd\	li-	-gę	.
=4	=4	=4	=4	=4	=4	=4	=4
1ryy	(4E\	-li-	pew-	(4g/	-li-	pew-	1ryy
.	4G\)	.	.	4a/)	.	.	.
*	*2\right	*	*	*	*	*	*
!	!LO:TX:t=P:problem=2\right&colon; global	!	!	!	!	!	!
.	2F#;\	-ja	-ną	2a;/	-ja	-ną	.
=5	=5	=5	=5	=5	=5	=5	=5
1ryy	4E\	Pa-	przy-	4a/	Pa-	przy-	1ryy
.	4E-X\	-nu	-ka-	4f#/	-nu	-ka-	.
.	4D\	Bo-	-za-	4g/	Bo-	-za-	.
.	4En\	-gu	-nia	4a/	-gu	-nia	.
=6	=6	=6	=6	=6	=6	=6	=6
1ryy	2D\	mi-	Twe-	(>4g/	mi-	Twe-	1ryy
.	.	.	.	4f#/)	.	.	.
.	2BB;/	-ła	-go	2d;/	-ła	-go	.
!	!	!	!	!LO:LB:g=original	!	!	!
=7	=7	=7	=7	=7	=7	=7	=7
1ryy	4D\	Mat-	Bo-	4d/	Mat-	Bo-	1ryy
.	4D\	-ko	-ga	4e/	-ko	-ga	.
.	4D\	li-	Wszech-	4f#/	li-	Wszech-	.
.	4D\	-toś-	-mo-	4g/	-toś-	-mo-	.
=8	=8	=8	=8	=8	=8	=8	=8
1ryy	2C#X/	-ci-	-cne-	(4e/	-ci-	-cne-	1ryy
.	.	.	.	8a/L	.	.	.
.	.	.	.	8g/J)	.	.	.
.	4D\	-wa	-go	4f#;/	-wa	-go	.
.	4r	.	.	4r	.	.	.
=9!|:	=9!|:	=9!|:	=9!|:	=9!|:	=9!|:	=9!|:	=9!|:
1ryy	4D\	Tyś	On	4g/	Tyś	On	1ryy
.	4D\	jest	Ci	4f#/	jest	ci	.
.	4D\	na-	wszys-	4g/	na-	wszys-	.
.	4G\	-sza	-tka	4g/	-sza	-tka	.
=10	=10	=10	=10	=10	=10	=10	=10
1ryy	4A\	u-	na-	4a/	u-	na-	1ryy
.	4G\	-ciecz-	-dzie-	4a/	-ciecz-	-dzie-	.
.	2F#;\	-ka	-ja	2a;/	-ka	-ja	.
!	!	!	!	!LO:LB:g=original	!	!	!
=11	=11	=11	=11	=11	=11	=11	=11
1ryy	4D\	Naj-	zba-	4g/	naj-	zba-	1ryy
.	4D\	-świę-	-wie-	4f#/	-świę-	-wie-	.
.	4D\	-tsza	-nia	4g/	-tsza	-nia	.
.	4E\	Ma-	na	4g/	Ma-	na	.
=12	=12	=12	=12	=12	=12	=12	=12
1ryy	2D\	-ry-	sze-	(4g/	-ry-	sze-	1ryy
.	.	.	.	4f#/)	.	.	.
!	!	!	!	!LO:TX:b:t=dnia 28/II 1890\nTomasz Flasza.	!	!	!
.	2BB;/	-a.	-go.	2d;/	-a.	-go.	.
==:||	==:||	==:||	==:||	==:||	==:||	==:||	==:||
*-	*-	*-	*-	*-	*-	*-	*-
!!!system-decoration: [(s1,s2,s3,s4)]
!!!EED: Leszek Kubiak
!!!EEV: 2021-02-08
!!!ENC: Mateusz Solarz
!!!END: 2021-01-29
!!!YEC: Copyright 2022 Narodowy Instytut Fryderyka Chopina (https://polishscores.org)
!!!YEM: License CC-BY-4.0 (https://creativecommons.org/licenses/by/4.0)
